brandFactory_export/1.Light/Rewind_1Light.svg

<?xml version="1.0" encoding="UTF-8"?>
<svg width="24px" height="24px" viewBox="0 0 24 24" version="1.1" xmlns="http://www.w3.org/2000/svg" xmlns:xlink="http://www.w3.org/1999/xlink">
    <title>1.Light/Rewind_1Light</title>
    <g id="Symbols" stroke="none" stroke-width="1" fill="none" fill-rule="evenodd">
        <g id="1.Light/Rewind_1Light" fill="#5CB615" fill-rule="nonzero">
            <path d="M11.8285714,0.0268907563 C15.5966387,0.0268907563 18.5176471,1.00168067 20.5142857,2.92773109 C22.5848739,4.92436975 23.6369769,7.92268908 23.6369769,11.8352941 C23.6403361,19.5563025 19.5563025,23.6403361 11.8285714,23.6403361 C4.10756303,23.6403361 0.0235294118,19.5596639 0.0235294118,11.8352941 C0.0235294118,4.11092437 4.10420168,0.0268907563 11.8285714,0.0268907563 Z M11.8285714,0.699159664 C4.44369748,0.699159664 0.695798319,4.44705882 0.695798319,11.8352941 C0.695798319,19.2201681 4.44033613,22.9680672 11.8285714,22.9680672 C19.2201681,22.9680672 22.9647081,19.2235294 22.9647081,11.8352941 C22.9680672,4.44369748 19.2201681,0.699159664 11.8285714,0.699159664 Z M10.9445378,7.20672269 C11.0487395,7.26722689 11.1159664,7.37815126 11.1159664,7.49915966 L11.1145731,11.3106648 C11.1423198,11.2602359 11.1828571,11.2170084 11.2336134,11.1865546 L17.8420168,7.21680672 C17.9462185,7.15294118 18.0739496,7.15294118 18.1815126,7.21344538 C18.2857143,7.27394958 18.3529412,7.38487395 18.3529412,7.50588235 L18.3529412,15.4084034 C18.3529412,15.5294118 18.2890756,15.6403361 18.1815126,15.7008403 C18.1310924,15.7310924 18.0739496,15.7445378 18.0168067,15.7445378 C17.9563025,15.7445378 17.8991597,15.7277311 17.8453782,15.697479 L11.2369748,11.7647059 C11.1852101,11.7336471 11.1431886,11.689302 11.114548,11.6375815 L11.1159664,15.4016807 C11.1159664,15.5226891 11.0521008,15.6336134 10.9445378,15.6941176 C10.897479,15.7243697 10.8403361,15.7411765 10.7831933,15.7411765 C10.7226891,15.7411765 10.6655462,15.7243697 10.6117647,15.6941176 L4,11.7579832 C3.89915966,11.697479 3.83529412,11.5865546 3.83529412,11.4689076 C3.83529412,11.3512605 3.89579832,11.2403361 3.99663866,11.1798319 L10.605042,7.21008403 C10.7092437,7.14621849 10.8369748,7.14621849 10.9445378,7.20672269 Z M17.6806723,8.10084034 L12.0638655,11.4756303 L17.6806723,14.8201681 L17.6806723,8.10084034 Z M10.4436975,8.09411765 L4.82689076,11.4689076 L10.4436975,14.8134454 L10.4436975,8.09411765 Z" id="Rewind_1Light"></path>
        </g>
    </g>
</svg>

<svg width="24" height="24" viewBox="0 0 24 24" xmlns="http://www.w3.org/2000/svg"><path d="M11.829.027c3.768 0 6.689.975 8.685 2.9 2.07 1.997 3.123 4.996 3.123 8.908.003 7.721-4.08 11.805-11.808 11.805C4.108 23.64.024 19.56.024 11.835.024 4.111 4.104.027 11.829.027zm0 .672C4.444.7.696 4.447.696 11.835c0 7.385 3.744 11.133 11.133 11.133 7.391 0 11.136-3.744 11.136-11.133C22.968 4.444 19.22.7 11.829.7zm-.884 6.508a.34.34 0 01.171.292l-.001 3.812a.33.33 0 01.119-.124l6.608-3.97a.332.332 0 01.34-.004.34.34 0 01.17.293v7.902a.334.334 0 01-.335.337.346.346 0 01-.172-.048l-6.608-3.932a.34.34 0 01-.122-.127l.001 3.764a.334.334 0 01-.171.292.301.301 0 01-.162.047.346.346 0 01-.171-.047L4 11.758a.337.337 0 01-.003-.578l6.608-3.97a.332.332 0 01.34-.003zm6.736.894l-5.617 3.375 5.617 3.344V8.1zm-7.237-.007L4.827 11.47l5.617 3.344V8.094z" fill="#5CB615" fill-rule="nonzero"/></svg>
